icons/caret-double-topright.svg

<svg width="24" height="24" viewBox="0 0 24 24" fill="none" xmlns="http://www.w3.org/2000/svg">
<path fill-rule="evenodd" clip-rule="evenodd" d="M6.47915 11.1804C6.30404 11.1431 6.10794 11.1543 5.91632 11.2459C5.66539 11.366 5.53228 11.5718 5.46774 11.7224C5.34369 12.0119 5.34972 12.3676 5.49878 12.6658L5.55321 12.7746L11.2253 18.4468L11.3342 18.5012C11.6109 18.6395 11.9617 18.6729 12.28 18.5137C12.6162 18.3456 12.8196 18.0064 12.8196 17.6304V12.1304C12.8196 11.8364 12.6802 11.6053 12.5374 11.4625C12.3947 11.3198 12.1635 11.1804 11.8696 11.1804H6.47915ZM7.58026 12.6804L11.3196 16.4197V12.6804H7.58026Z" fill="black"/>
<path fill-rule="evenodd" clip-rule="evenodd" d="M11.2863 5.91996C11.4544 5.58378 11.7935 5.38037 12.1696 5.38037H17.6696C17.9635 5.38037 18.1947 5.51978 18.3374 5.66254C18.4802 5.8053 18.6196 6.03645 18.6196 6.33037V11.8304C18.6196 12.2064 18.4162 12.5456 18.08 12.7137C17.7617 12.8729 17.4109 12.8396 17.1342 12.7012L17.0253 12.6468L11.3532 6.97464L11.2988 6.86578C11.1604 6.58906 11.1271 6.23831 11.2863 5.91996ZM13.3803 6.88037L17.1196 10.6197V6.88037H13.3803Z" fill="black"/>
</svg>

<svg xmlns="http://www.w3.org/2000/svg" fill="none" viewBox="0 0 24 24">
  <path fill="#000" fill-rule="evenodd" d="M6.48 11.18a.87.87 0 0 0-.564.066.928.928 0 0 0-.448.476 1.14 1.14 0 0 0 .03.944l.055.109 5.672 5.672.11.054c.276.139.627.172.945.013a.978.978 0 0 0 .54-.884v-5.5a.95.95 0 0 0-.283-.668.95.95 0 0 0-.667-.282H6.48Zm1.1 1.5 3.74 3.74v-3.74H7.58Zm3.706-6.76a.978.978 0 0 1 .884-.54h5.5a.95.95 0 0 1 .667.283.95.95 0 0 1 .283.667v5.5a.978.978 0 0 1-.54.884c-.318.159-.67.126-.946-.013l-.109-.054-5.672-5.672-.054-.11a1.056 1.056 0 0 1-.013-.945Zm2.094.96 3.74 3.74V6.88h-3.74Z" clip-rule="evenodd"/>
</svg>
